X:70
T:Farewell to Whiskey
S:Bob Newton
N:Transcribed by Alan Ng
Z:id:ng-other-14 Transcribed by Alan Ng agng@facstaff.wisc.edu July 10, 2000
R:polka
M:2/4
L:1/16
K:GMaj
D2G2 BAGA|B2E2 E2GE|D2G2 BAGA|d2B2 B2d2|efge d2B2|cBAG A2B2|D2G2 BAGA|B2G2 G4:|*
|:d2B2 g2g2|efge d2B2|d2Bd g2g2|e2f2 g4|efge d2B2|cBAG A2B2|D2G2 BAGA|B2G2 G4:|**
